X: 14106
T: Friendly Visit, The
R: hornpipe
M: 4/4
K: Gmajor
|:B>A|(3GAG D>G B>GB>d|c>BA>B c>de>f|g2 d>g e>cA>G|F>GA>B c>AF>A|
(3GFG D>G B>GB>d|c>BA>B c>de>f|g>dB>G D>FA>c|B2 G2 G2:|
|:(3def|g2 d>B G>Bd>g|e2 c>A E2- E>e|f2 e>d ^c>de>g|f>de>^c d>=cB>A|
(3GAG D>G B>GB>d|c>BA>B c>de>f|g>dB>G D>FA>c|B2 G2 G2:|

